assets/svg/walletnetwork.svg

<svg width="30" height="30" viewBox="0 0 30 30" fill="none" xmlns="http://www.w3.org/2000/svg">
<rect x="0.5" y="0.5" width="29" height="29" rx="6.16667" fill="white" stroke="#E1EAF8" stroke-linecap="round"/>
<path d="M15 20.0017V17.5017M15 20.0017C14.558 20.0017 14.134 20.1773 13.8215 20.4898C13.5089 20.8024 13.3333 21.2263 13.3333 21.6683M15 20.0017C15.442 20.0017 15.866 20.1773 16.1785 20.4898C16.4911 20.8024 16.6667 21.2263 16.6667 21.6683M15 17.5017C17.9917 17.5017 20.4167 15.0767 20.4167 12.085M15 17.5017C12.0083 17.5017 9.58333 15.0767 9.58333 12.085M15 17.5017C16.1504 17.5017 17.0825 15.0767 17.0825 12.085C17.0825 9.09334 16.1504 6.66833 15 6.66833M15 17.5017C13.8496 17.5017 12.9159 15.0767 12.9159 12.085C12.9159 9.09334 13.8496 6.66833 15 6.66833M13.3333 21.6683H7.5M13.3333 21.6683C13.3333 22.1104 13.5089 22.5343 13.8215 22.8468C14.134 23.1594 14.558 23.335 15 23.335C15.442 23.335 15.866 23.1594 16.1785 22.8468C16.4911 22.5343 16.6667 22.1104 16.6667 21.6683M16.6667 21.6683H22.5M20.4167 12.085C20.4167 9.09334 17.9917 6.66833 15 6.66833M20.4167 12.085H9.58333M9.58333 12.085C9.58333 9.09334 12.0083 6.66833 15 6.66833" stroke="#494949" stroke-width="0.8" stroke-linecap="round" stroke-linejoin="round"/>
</svg>

<svg xmlns="http://www.w3.org/2000/svg" width="30" height="30" fill="none"><rect width="29" height="29" x=".5" y=".5" fill="#fff" stroke="#E1EAF8" stroke-linecap="round" rx="6.167"/><path stroke="#494949" stroke-linecap="round" stroke-linejoin="round" stroke-width=".8" d="M15 20.002v-2.5m0 2.5a1.667 1.667 0 0 0-1.667 1.666M15 20.002a1.667 1.667 0 0 1 1.667 1.666M15 17.502a5.417 5.417 0 0 0 5.417-5.417M15 17.502a5.416 5.416 0 0 1-5.417-5.417M15 17.502c1.15 0 2.082-2.425 2.082-5.417S16.15 6.668 15 6.668m0 10.834c-1.15 0-2.084-2.425-2.084-5.417S13.85 6.668 15 6.668m-1.667 15H7.5m5.833 0a1.666 1.666 0 1 0 3.334 0m0 0H22.5m-2.083-9.583A5.417 5.417 0 0 0 15 6.668m5.417 5.417H9.583m0 0A5.416 5.416 0 0 1 15 6.668"/></svg>
